X:1
T:N 3. THEME.
T: 55. OFFERTOIRE
T:C. GLUCK (1714-1787)
T: Cet Offertoire est charmant en tous points; d'une mélodie gracieuse et élégante, d'une écriture très simple et très ingénisuse à la fois, il porte dans toutes ses parties, la signature du mâitre de genie qui l'a écrit. Bien nuancer les différents développements du premier motif, en modifiant la registration à chacun d'eux et d'après la nuance à obtenir, mettre beaucoup de clarté et surtout beaucoup de simplicité dans l'exécution, en tenant compte des divisions de la ligne melodique dont les contours sont indiqués par les liaisons. Observer le ritendo de la 28ᵉ mesure et le rallentando de la fin, celui et très accuse. 
T:Louis Raffy Organistes Célébres Grands Maitres Classiques - VOLUME I
T:Louis Raffy Organistes Célébres Grands Maitres Classiques - VOLUME I
C:F. SCHUBERT (1797-1828)
Z:Louis Raffy Organistes Célébres Grands Maitres Classiques - VOLUME I
%%score { ( 1 3 ) | ( 2 4 ) }
L:1/8
Q:1/4=80
M:4/4
K:C
V:1 treble nm="Organ" snm="Org."
V:3 treble 
V:2 bass 
V:4 bass 
V:1
!p!"^Andante con moto" (!2!G2 | !5!e3 d) c2 !2!B2 | (!2!!4![GB]4 !1!!3![FA]2) (!1!!4![CG]2 | %3
!<(! !3!F2 F2 F2!<)! G2 |!>(! !2!!4![DF]4!>)! !1!!3![CE]2) (!5![CG-]2 | G6 !3![C-G]2 | %6
 !4![CA]6 [Cc]2) |!>(! (!3![DF]4!>)!"^" !2![CE]2 !5![EG]D) | %8
 (!3![CE]4 !open!!2![B,D]2)!f! (!2!G2- | !5!e3 !5!d !4!c2 !3!B2) | (!2!!4![GB]4 !4![FA]2) ([CG]2 | %11
 !3!F2!<(! F2-!<)! F!5!AGF) |!>(! (!2!!4![DF]4!>)! [CE]2) (!1!G2- |!<(! !5!d3 c B2!<)! c2 | %14
"^" !1-2!!2-4![FA]6 [CGc]2) | (!3!!5![df]4!>(! !2!!4![ce]3 [df]) | %16
 ((!5![G-ce]4!>)! !open![GBd]2))!mf! (!3!G2 | !5!B3 A G2 !2!^F2) | %18
 ((!2!!4![D^F]4 !1!!3![CE]2)) !1!E2 | (!3![ce]3"_cresc." [Bd] [Ac]2 !1!!2![GB]2) | %20
 (!1!!4![GB]4 !2!!3![^FA]2)!f! (!5!g2 | !4!^f!3!e !2!d4) (!5!g2 | %22
 ^fe"^" !2-5!d4)"_dim." (!4!c!3!B | !5!B!4!A !3!G4 !1!!2![C^F]2) | %24
!>(! ((!2!!4![C^F]4!>)! !5![B,G]2)) !5!G2- | G4 (!5!=FED!2!C) | %26
!>(![I:staff +1] ((!2!!4![A,C]4!>)! !1!!3![G,B,]2))!pp![I:staff -1] G2- | %27
[Q:1/4=60]"_poco rit." (GFAG!<(! (F E)) D!<)!C | %28
!>(![I:staff +1] ((!2!!4![A,C]4!>)! !1!!3![G,B,]2))!p![Q:1/4=80]"^Tempo I."[I:staff -1] (!2!G2 | %29
 !2!!5![Ge]3 [Fd]"^" !3-5![Ec]2 !2!!4![GB]2) | (!2!!4![GB]4 [FA]2) (!1!!2![Gc]2 | %31
!<(! !5!f2!<)! f2 !4!f2 !5!g2) |!>(! ((!5![G-df]4!>)! !4![Gce]2))!p! (!1!!5![Ec]2 | %33
 !2!!4![GB]!1!!3![FA] !1!!2![EG]4)!pp! ([Ec]2 | [GB][FA] [EG]4)!p! (!3!!5![FA]2 | %35
[Q:1/4=50]"^rall." !4!GF"^" !2-5!E2-)!>(! (E!>)!!4!D!3!C!2!B,) | z8 |] %37
V:2
 (!2!G,2 | [C,G,]4) !4![E,C-]4 | !3![F,C]4- [F,C]2 !2!E,2 | A,4 G,4 | !3![C,G,]4- [C,G,]2 !2!E,2 | %5
 !1!F,3 E, !3!D,2 !4!!2![C,E,]2 |"^" !1-2!F,6 !3!!1![E,G,-]2 | (G,8 | %8
 !5![G,,G,]4-) !open![G,,G,]2 !2!G,2 | [C,C]4 !4![E,C-]4 | !3![F,C]4- [F,C]2 !2!E,2 | A,4 (G,4 | %12
 !3![C,G,]4-) [C,G,]2 !2!E,2 | !1!F,3 E, !3!D,2 !2!E,2 | [F,,F,]2 !4!A,,!2!C, F,2 E,2 | %15
 !4!B,,2 !5!G,,2 !3!C,2 !2!E,2 | [G,,G,]4- !open![G,,G,]2 z2 | G,8- | %18
 !3![C,G,]4- [C,G,]2 !4!!1![B,,^G,]2 | [A,,A,]4 !4!C,2 !3!^C,2 | !2!D,4- D,2 !3!B,2 | %21
 !1!DC B,2 !5!G,A, B,2 | !1!DC!3!B,!1!C B,!3!A, !1!G,2 | !3!C,2 !4!B,,^C, D,4- | %24
 !3![G,,D,]4- [G,,D,]2!p! !2!!4![E,G,]2 | !1!!3![=F,A,]4 !1!A,4 | !3!G,,4- G,,2 [E,G,]2 | %27
 [F,A,]4 !5!F,,2 ^F,,2 | !3!G,,4- G,,2 (!2!G,2 | [C,G,]6) !4![E,C-]2 | !3![F,C]6 !4![E,C]2 | %31
 !1!D,2 C,2 !3!B,,2 !5!G,,2 | C,4- C,2 z2 | !2!C,4 C,4 | C,4 !1!C,4 | %35
 !2!B,,2 !1!C,2 !2!A,2 !1!F,2 | (!2!!4![F,B,]4 !fermata![E,C]4) |] %37
V:3
 x2 | E4 G4 | x8 | D8 | x8 | !3!D3!<(! C !1!B,2 x2!<)! | x8 | x8 | x8 | [EG]4 [EG]4 | x8 | D8 | %12
 x8 | G6 G2 | x8 | G8 | x8 | D8 | x8 | x8 | x6 G2- | G8- | G8 | !2!E2 !1!D4 x2 | x8 | x8 | x8 | %27
 !1!C6 A,2 | x8 | x8 | x8 | [Ad]4 [Gd]4 | x8 | x8 | x8 | !1!D2 !1!C2 x4 | x8 |] %37
V:4
 x2 | x8 | x8 | !3!D,2 C,2 !5-4!B,,2 !5!G,,2 | x8 | G,,6 x2 | x8 | !5!B,,4 !5!C,4 | x8 | x8 | x8 | %11
 !3!D,2 !2!D,!3!C, !4!B,,2 !5!G,,2 | x8 | G,,6 !4!C,2 | x8 | x8 | x8 | !5!G,,4 !4!B,,4 | x8 | x8 | %20
 x8 | x8 | x8 | x4 D,2 D,,2 | x8 | x4 !5!F,,2 !4!^F,,2 | x8 | x8 | x8 | x8 | x8 | x8 | x8 | x8 | %34
 x8 | x4 !4!F,,2 !3!G,,2 | (!1!C,2 !2!G,,2 !fermata!!5!C,,4) |] %37

